!! 00000] TT[WS
!!!OTL: Zuo Chenggong
!!!ARE: Asia, China, Shanxi Pingding
!! Ethnic Group: Han
!! WI, 270
!!!SCT: J0321
!!!YEM: Copyright 1995, estate of Helmut Schaffrath.
**kern
*ICvox
*Ivox
!! Mixed meters:  2/4; 1/4
*MZ
*k[b-]
*F:
{8a
8cc
8ff
8dd
=1
4.cc
8r
=2
8a
4cc
8ff
=3
8dd
8cc
8a
8g
=4
4f}
=5
*M2/4
{8ff
8ff
8dd
8ff
=6
8a
8g
4f
=7
8cc
8d
4f
=8
8ff
8ff
8.dd
16cc
=9
8cc
8cc
8cc
16d
16f
=10
*M1/4
4g}
=11
*M2/4
{8ff
8ff
8.dd
16ff
=12
8cc
8cc
4f
=13
8cc
16cc
16a
16g
16a
16g
16d
=14
2c}
==
!!!AGN: Xiaodiao. Suku
!!!ONB: ESAC (Essen Associative Code) Database: CHINA
!!!AMT: irregular
!!!AIN: vox
!!!EED: Helmut Schaffrath
!!!EEV: 1.0
*-
